packages/ui-icons/svg/Line/quiz-stats-high.svg

<svg viewBox="0 0 1920 1920" version="1.1" xmlns="http://www.w3.org/2000/svg">
    <path d="M960,1807.05882 C492.875294,1807.05882 112.941176,1427.12471 112.941176,960 C112.941176,492.875294 492.875294,112.941176 960,112.941176 C1427.12471,112.941176 1807.05882,492.875294 1807.05882,960 C1807.05882,1427.12471 1427.12471,1807.05882 960,1807.05882 M960,0 C430.644706,0 0,430.644706 0,960 C0,1489.35529 430.644706,1920 960,1920 C1489.35529,1920 1920,1489.35529 1920,960 C1920,430.644706 1489.35529,0 960,0 M790.588235,677.647059 L1162.50353,677.647059 L581.195294,1258.84235 L661.157647,1338.80471 L1242.35294,757.496471 L1242.35294,1129.41176 L1355.29412,1129.41176 L1355.29412,564.705882 L790.588235,564.705882 L790.588235,677.647059 Z" stroke="none" stroke-width="1" fill-rule="evenodd"/>
</svg>

<svg viewBox="0 0 1920 1920" version="1.1" xmlns="http://www.w3.org/2000/svg">
    <path d="M960 1807.059c-467.125 0-847.059-379.934-847.059-847.059 0-467.125 379.934-847.059 847.059-847.059 467.125 0 847.059 379.934 847.059 847.059 0 467.125-379.934 847.059-847.059 847.059M960 0C430.645 0 0 430.645 0 960s430.645 960 960 960 960-430.645 960-960S1489.355 0 960 0M790.588 677.647h371.916l-581.309 581.195 79.963 79.963 581.195-581.309v371.916h112.941V564.706H790.588v112.941z" stroke="none" stroke-width="1" fill-rule="evenodd"/>
</svg>
